X:1
T: Rock the Boat
N:
C:
S:Tune is "Brose and Butter" (trad.)
A:
O:
R:
M:9/8
K:D
I:speed 170
%W: A1
% voice 1 (1 lines, 28 notes)
K:D
M:9/8
L:1/16
A2 |d2 e2 f2 B6 B6 d2 e2 f2 B4 B2 e2 c2 A2 d2 e2 f2 B6 B4 B2 c2 d2 e2 e2 f2 d2 c4 A2 |
%W: A2
% voice 1 (1 lines, 28 notes)
d2 e2 f2 B6 B6 d2 e2 f2 B4 B2 e2 c2 A2 d2 e2 f2 B6 B4 B2 c2 d2 e2 e2 f2 d2 c2 B2 A2 |
%W: B1
% voice 1 (1 lines, 35 notes)
d2 e2 f2 f2 a2 f2 f2 a2 f2 d2 e2 f2 f2 a2 f2 e4 A2 d2 e2 f2 f2 a2 f2 f2 a2 f2 c2 d2 e2 e2 a2 f2 e2 c2 A2 |
%W: B2                                                                              Final
% voice 1 (1 lines, 36 notes)
d2 e2 f2 f2 a2 f2 f2 a2 f2 d2 e2 f2 f2 a2 f2 e4 A2 d2 e2 f2 f2 a2 f2 f2 a2 f2 c2 d2 e2 a2 ^g2 f2 e2 c2 A2 ||d16 ||
